X: 13
T: KAS A BARH
M: 4/4
L: 1/8
Q:1/4=60
K:G
|BB/2A/2G3/2A/2 BcAA|BB/2A/2G3/2A/2 BcA2|BB/2A/2G3/2A/2 BcAA|BB/2A/2G3/2
A/2 BcA3/2G/2|
GBd3/2e/2 cdB3/2A/2|GBd3/2c/2 AFG3/2G/2|GBd3/2e/2 cdB3/2A/2|GBd3/2c/2 AF
G3/2|
